X: 4750
T:National Anthem of E/ire
T:Amhra/n na bhFiann
T:The Soldier's Song
R:March
C:Peadar Kearney/Patrick Heaney
S:IRTRAD, Benjamin Hollister, 5/98
B:National Anthems of The World
Z:Benjamin Hollister
M:4/4
L:1/4
K:C dor
z4|z2"f"z"VERSE"F|D(B,/2D/2)F3/2F/2|(G/2A/2)(B/2c/2)d3/2c/2|
BGFD|(F3/2E/2)C/2z/2F|D(B,/2D/2)F3/2F/2|
(G/2A/2)(B/2c/2)d3/2B/2|A3/2A/2G3/2G/2|FFz"mf"F|
E3/2E/2(E/2C/2)(D/2E/2)|F3/2G/2FB|A3/2G/2AG|
"cresc"FE(CF)|"f"D(B,/2D/2)F3/2F/2|(G/2A/2)(B/2c/2)d(B/2G/2)|
(F/2B)D/2C3/2B,/2|B,3z||"CHORUS"(B3/2c/2)dB|F3F|
G3/2G/2EG|F2F2|B2A2|G3(A/2B/2)|
c3/2d/2cG|A3z|(B3/2c/2)dB|F3F|
G3/2G/2EG|F2FF|A2A3/2A/2|AAG3/2G/2|
F3"p"F|E3/2E/2(E/2C/2)(D/2E/2)|F3/2G/2FB|
"cresc"A3/2G/2AG|FEC"f"F|"cresc"D(B,/2D)F3/2F/2|
(G/2A/2)(B/2c/2)"ff".d(B/2G/2)|("rit."F/2B)d/2c3/2B|B3"D.C."z||
